Static/linkedin.svg

<svg width="24" height="24" viewBox="0 0 24 24" fill="none" xmlns="http://www.w3.org/2000/svg">
<g clip-path="url(#clip0_652_8632)">
<path d="M12 23.9998C18.6274 23.9998 24 18.6272 24 11.9998C24 5.37234 18.6274 -0.000244141 12 -0.000244141C5.37258 -0.000244141 0 5.37234 0 11.9998C0 18.6272 5.37258 23.9998 12 23.9998Z" fill="#007AB9"/>
<path d="M19.1699 12.9653V17.9127H16.3016V13.2969C16.3016 12.1379 15.8874 11.3465 14.8489 11.3465C14.0563 11.3465 13.5855 11.8793 13.3776 12.3953C13.3021 12.5797 13.2826 12.8357 13.2826 13.0943V17.9125H10.4141C10.4141 17.9125 10.4526 10.0949 10.4141 9.28563H13.2828V10.5081C13.2771 10.5178 13.2689 10.5272 13.2638 10.5364H13.2828V10.5081C13.664 9.92159 14.3438 9.08306 15.868 9.08306C17.7551 9.08306 19.1699 10.316 19.1699 12.9653ZM7.41332 5.1272C6.43211 5.1272 5.79016 5.77128 5.79016 6.61752C5.79016 7.44578 6.4135 8.10848 7.37567 8.10848H7.39428C8.39475 8.10848 9.0168 7.44578 9.0168 6.61752C8.99776 5.77128 8.39475 5.1272 7.41332 5.1272ZM5.96065 17.9127H8.82813V9.28563H5.96065V17.9127Z" fill="#F1F2F2"/>
</g>
<defs>
<clipPath id="clip0_652_8632">
<rect width="24" height="24" fill="white"/>
</clipPath>
</defs>
</svg>

<svg xmlns="http://www.w3.org/2000/svg" width="24" height="24" fill="none"><g clip-path="url(#a)"><path fill="#007AB9" d="M12 24c6.627 0 12-5.373 12-12 0-6.628-5.373-12-12-12S0 5.372 0 12c0 6.627 5.373 12 12 12Z"/><path fill="#F1F2F2" d="M19.17 12.965v4.948h-2.868v-4.616c0-1.16-.415-1.95-1.453-1.95-.793 0-1.264.532-1.471 1.048-.076.185-.095.44-.095.7v4.818h-2.869s.039-7.818 0-8.627h2.869v1.222l-.02.028h.02v-.028c.381-.586 1.06-1.425 2.585-1.425 1.887 0 3.302 1.233 3.302 3.882ZM7.413 5.127c-.98 0-1.623.644-1.623 1.49 0 .829.623 1.491 1.586 1.491h.018c1 0 1.623-.662 1.623-1.49-.02-.847-.622-1.49-1.604-1.49ZM5.961 17.913h2.867V9.286H5.961v8.627Z"/></g><defs><clipPath id="a"><path fill="#fff" d="M0 0h24v24H0z"/></clipPath></defs></svg>
